X: 10351
M: 3/4
L: 1/8
K: G
d2 |\
dgfedc | edB2GB | dcA2FA | edB2d2 |\
dgfedc | edB2GB | dcedcA | G4 :|
|: D2 |\
dgfedc | edB2GB | dcedcA | G4 :|


